X: 1953
T: Arriving To St. John's
R: jig
M: 6/8
K: Amajor
|:e2e efe|A2A ABc|d2d ded|F2F FGA|B2B BcB|
G2B E3|1 e2e fed|c3 c2d:|2 efe dcB|A3 A3||
|:E2E EDC|c2c cBA|F2F FED|d2d dcB|G2G GFG|
EFE EGB|1 e2e fed|c3 cAF:|2 efe dcB|A3 A3||

